X: 610
T: The Goodnatured Man
B: jims roots
M:2/4
L:1/8
R: hornpipe
Q: 1/4=100
K:G
V:1 
%O'Neill's 1620
%Transcribed by Michael Hogan
|: xd2 | "G"g2bg d2gd | BcdB G2AB | "C"cded cBAG | "D"FGEF D2d2 |
"G"g2bg d2gd | BcdB G2AB | "C"cedc BAGF | "D"A2G2 "G"G2:|
|: x(Bc) | "G"d^cdB gfgd | "C"e^dec a^gae | "D"f=f^fe d^cde |
fgaf defd | "G"g2bg d2gd | BcdB G2AB | "C"cedc "D"BAGF | "G"A2G2 G2:|
|:xBc |"G"d^cdB G2 =cd | "C"ecec A2 Bc | "G"d^cdB "C"ed=cB | "D"FGAB cAFA |
"G"d^cdB G2 =cd | "C"ecec A2 AB | cedc "D"BGAF | "G"G2 B2 G2:|
% abcbook-tune_id 6298c25dcf6b480da55db992


% abcbook-boost 0
% abcbook-tablature 
% abcbook-transpose 
% abcbook-lastupdated 1654178398346
% abcbook-soundfonts 
% abcbook-repeats 1


